source/img/icon/icon-advantages-1.svg

<svg width="85" height="84" viewBox="0 0 85 84" fill="none" xmlns="http://www.w3.org/2000/svg">
<path d="M24.4444 46.2H24.2605V47.6C24.2563 47.127 24.3179 46.656 24.4444 46.2Z" fill="#BDDBFF"/>
<path opacity="0.8" d="M24.2605 60.2V40.6H15.7605V63H24.2605V60.2Z" fill="#27ACE2"/>
<path opacity="0.8" d="M56.8437 29.4C56.8437 35.5858 51.7698 40.6 45.5103 40.6C39.2509 40.6 34.177 35.5858 34.177 29.4C34.177 23.2142 39.2509 18.2 45.5103 18.2C51.7698 18.2 56.8437 23.2142 56.8437 29.4Z" fill="#27ACE2"/>
<path opacity="0.8" d="M25.6772 1.40002H59.6772C62.8066 1.40002 65.3438 3.90745 65.3438 7.00002V12.6H20.0105V7.00002C20.0105 3.90745 22.5478 1.40002 25.6772 1.40002Z" fill="#27ACE2"/>
<path opacity="0.8" d="M20.0105 68.6H65.3438V77C65.3438 80.0925 62.8066 82.6 59.6772 82.6H25.6772C22.5478 82.6 20.0105 80.0925 20.0105 77V68.6Z" fill="#27ACE2"/>
<path d="M21.4271 14H58.2604V11.2H21.4271V7C21.4271 4.68057 23.33 2.8 25.6771 2.8H59.6771C62.0241 2.8 63.9271 4.68057 63.9271 7V19.6H66.7604V7C66.7556 3.13564 63.5874 0.00478517 59.6771 0H25.6771C21.7667 0.00478517 18.5986 3.13564 18.5938 7V25.2H21.4271V14Z" fill="#0060AA"/>
<path d="M63.9271 67.2H27.0938V70H63.9271V77C63.9271 79.3194 62.0241 81.2 59.6771 81.2H25.6771C23.33 81.2 21.4271 79.3194 21.4271 77V67.2H18.5938V77C18.5986 80.8643 21.7667 83.9952 25.6771 84H59.6771C63.5874 83.9952 66.7556 80.8643 66.7604 77V61.6H63.9271V67.2Z" fill="#0060AA"/>
<path d="M41.2605 74.2H44.0938V77H41.2605V74.2Z" fill="#0060AA"/>
<path d="M31.3438 5.60004H34.1771V8.40004H31.3438V5.60004Z" fill="#0060AA"/>
<path d="M37.0105 5.60004H39.8438V8.40004H37.0105V5.60004Z" fill="#0060AA"/>
<path d="M24.2605 18.2V23.8H27.0938V19.6H31.3438V16.8H25.6772C24.8948 16.8 24.2605 17.4268 24.2605 18.2Z" fill="#0060AA"/>
<path d="M70.2129 38.5882C67.4439 35.8572 62.96 35.8572 60.191 38.5882L52.7113 45.9799C51.9145 45.2314 50.8596 44.8096 49.7604 44.8H42.085C40.9616 42.2468 38.4112 40.5966 35.5938 40.6H29.9271C28.3942 40.6 26.9035 41.0915 25.6771 42V40.6C25.6771 39.8269 25.0428 39.2 24.2604 39.2H15.7604C14.9781 39.2 14.3438 39.8269 14.3438 40.6V63C14.3438 63.7732 14.9781 64.4 15.7604 64.4H24.2604C25.0428 64.4 25.6771 63.7732 25.6771 63V61.6H48.3438C48.7194 61.6 49.0798 61.4524 49.3454 61.1899L70.2129 40.5679C70.7656 40.021 70.7656 39.1351 70.2129 38.5882ZM22.8438 61.6H17.1771V42H22.8438V61.6ZM47.7572 58.8H25.6771V47.6C25.6743 47.261 25.7172 46.9233 25.8057 46.5965C25.8057 46.5794 25.8057 46.5623 25.8175 46.5459C26.2976 44.6913 27.9902 43.3959 29.9271 43.4H35.5938C37.5299 43.3966 39.2219 44.692 39.7019 46.5459C39.8624 47.1666 40.4283 47.6007 41.0764 47.6H49.7604C50.0772 47.6041 50.3837 47.7108 50.6334 47.9035C50.8624 48.0778 51.0284 48.3205 51.1065 48.5953C51.1065 48.6124 51.1217 48.6247 51.1259 48.6404C51.1626 48.7567 51.1799 48.8783 51.1771 49C51.1778 49.3774 51.0208 49.7376 50.7434 49.9967C50.4854 50.2578 50.1298 50.4034 49.7604 50.4H34.1771V53.2H49.7604C52.1019 53.187 53.9973 51.314 54.0104 49C54.0104 48.892 53.9931 48.7874 53.9848 48.6808L62.2019 40.5679C63.4906 39.3347 65.4129 39.0093 67.044 39.7476L47.7572 58.8Z" fill="#0060AA"/>
<path d="M18.5938 44.8H21.4271V47.6H18.5938V44.8Z" fill="#0060AA"/>
<path d="M44.0938 21V22.6577C42.1438 23.3365 40.9734 25.306 41.3234 27.3198C41.6742 29.3337 43.4429 30.8041 45.5105 30.8C46.2928 30.8 46.9272 31.4269 46.9272 32.2C46.9272 32.9731 46.2928 33.6 45.5105 33.6C44.7282 33.6 44.0938 32.9731 44.0938 32.2H41.2605C41.2681 33.9732 42.4019 35.551 44.0938 36.1423V37.8H46.9272V36.1423C48.8772 35.4635 50.0476 33.494 49.6976 31.4802C49.3468 29.4663 47.5781 27.9959 45.5105 28C44.7282 28 44.0938 27.3731 44.0938 26.6C44.0938 25.8269 44.7282 25.2 45.5105 25.2C46.2928 25.2 46.9272 25.8269 46.9272 26.6H49.7605C49.7529 24.8268 48.6191 23.249 46.9272 22.6577V21H44.0938Z" fill="#0060AA"/>
<path d="M32.7605 29.4C32.7605 36.359 38.4687 42 45.5105 42C52.5523 42 58.2605 36.359 58.2605 29.4C58.2605 22.441 52.5523 16.8 45.5105 16.8C38.4721 16.8075 32.7681 22.4444 32.7605 29.4ZM55.4272 29.4C55.4272 34.8127 50.9876 39.2 45.5105 39.2C40.0334 39.2 35.5938 34.8127 35.5938 29.4C35.5938 23.9873 40.0334 19.6 45.5105 19.6C50.9849 19.6061 55.4209 23.99 55.4272 29.4Z" fill="#0060AA"/>
</svg>

<svg width="85" height="84" fill="none" xmlns="http://www.w3.org/2000/svg"><path d="M24.444 46.2h-.183v1.4a5.067 5.067 0 0 1 .183-1.4z" fill="#BDDBFF"/><path opacity=".8" d="M24.26 60.2V40.6h-8.5V63h8.5v-2.8zm32.584-30.8c0 6.186-5.074 11.2-11.334 11.2s-11.333-5.014-11.333-11.2c0-6.186 5.074-11.2 11.333-11.2 6.26 0 11.334 5.014 11.334 11.2zm-31.167-28h34c3.13 0 5.667 2.507 5.667 5.6v5.6H20.01V7c0-3.093 2.537-5.6 5.666-5.6zM20.01 68.6h45.334V77c0 3.093-2.537 5.6-5.667 5.6h-34c-3.13 0-5.666-2.507-5.666-5.6v-8.4z" fill="#27ACE2"/><path d="M21.427 14H58.26v-2.8H21.427V7c0-2.32 1.903-4.2 4.25-4.2h34c2.347 0 4.25 1.88 4.25 4.2v12.6h2.833V7c-.004-3.864-3.173-6.995-7.083-7h-34c-3.91.005-7.078 3.136-7.083 7v18.2h2.833V14zm42.5 53.2H27.094V70h36.833v7c0 2.32-1.903 4.2-4.25 4.2h-34c-2.347 0-4.25-1.88-4.25-4.2v-9.8h-2.833V77c.005 3.864 3.173 6.995 7.083 7h34c3.91-.005 7.079-3.136 7.083-7V61.6h-2.833v5.6z" fill="#0060AA"/><path d="M41.26 74.2h2.834V77H41.26v-2.8zM31.344 5.6h2.833v2.8h-2.833V5.6zm5.666 0h2.834v2.8H37.01V5.6zM24.26 18.2v5.6h2.834v-4.2h4.25v-2.8h-5.667c-.782 0-1.416.627-1.416 1.4zm45.953 20.388c-2.77-2.73-7.253-2.73-10.022 0l-7.48 7.392a4.367 4.367 0 0 0-2.95-1.18h-7.676c-1.123-2.553-3.674-4.203-6.491-4.2h-5.667a7.14 7.14 0 0 0-4.25 1.4v-1.4c0-.773-.634-1.4-1.417-1.4h-8.5c-.782 0-1.416.627-1.416 1.4V63c0 .773.634 1.4 1.416 1.4h8.5c.783 0 1.417-.627 1.417-1.4v-1.4h22.667c.375 0 .736-.148 1.001-.41l20.868-20.622a1.39 1.39 0 0 0 0-1.98zM22.843 61.6h-5.666V42h5.667v19.6zm24.914-2.8h-22.08V47.6c-.003-.339.04-.677.129-1.004 0-.017 0-.034.011-.05.48-1.855 2.173-3.15 4.11-3.146h5.667c1.936-.003 3.628 1.292 4.108 3.146.16.62.726 1.055 1.374 1.054h8.684c.317.004.624.11.873.303.23.175.395.418.473.692 0 .017.016.03.02.045a1.36 1.36 0 0 1-.383 1.356 1.365 1.365 0 0 1-.983.404H34.177v2.8H49.76c2.342-.013 4.237-1.886 4.25-4.2 0-.108-.017-.213-.025-.32l8.217-8.112a4.393 4.393 0 0 1 4.842-.82L47.757 58.8z" fill="#0060AA"/><path d="M18.594 44.8h2.833v2.8h-2.833v-2.8zm25.5-23.8v1.658c-1.95.678-3.12 2.648-2.77 4.662.35 2.014 2.119 3.484 4.187 3.48.782 0 1.416.627 1.416 1.4 0 .773-.634 1.4-1.416 1.4a1.409 1.409 0 0 1-1.417-1.4H41.26a4.204 4.204 0 0 0 2.834 3.942V37.8h2.833v-1.658c1.95-.678 3.12-2.648 2.77-4.662-.35-2.014-2.119-3.484-4.187-3.48a1.409 1.409 0 0 1-1.416-1.4c0-.773.634-1.4 1.416-1.4.783 0 1.417.627 1.417 1.4h2.834a4.204 4.204 0 0 0-2.834-3.942V21h-2.833z" fill="#0060AA"/><path d="M32.76 29.4c0 6.959 5.709 12.6 12.75 12.6 7.042 0 12.75-5.641 12.75-12.6s-5.708-12.6-12.75-12.6c-7.038.008-12.742 5.644-12.75 12.6zm22.667 0c0 5.413-4.44 9.8-9.916 9.8-5.478 0-9.917-4.387-9.917-9.8 0-5.413 4.44-9.8 9.916-9.8 5.475.006 9.91 4.39 9.917 9.8z" fill="#0060AA"/></svg>
